packages/core/src/svgs/tokens/mono/KAR.svg

<svg width="24" height="24" viewBox="0 0 24 24" fill="none" xmlns="http://www.w3.org/2000/svg">
<path d="M6.0001 8.66667H8.36674C8.6735 8.66667 9.57339 8.35338 10.7268 7.26002C11.8734 6.16002 14.9468 3.28001 16.3334 2H21.3334L13.3335 9.66674L21.2669 20.6667H17.3335L14.0001 16C14.4267 17.02 14.6801 19.6135 13.8734 22C14.0735 19.6934 12.8001 17.16 12.5534 16.8334C12.3334 16.54 11.1668 14.2066 10.6067 13.0801C10.1001 10.8933 12.3801 8.69996 13.5867 7.88002C12.0001 6.86668 10.5868 8.04002 10.08 8.74662C9.17346 8.62669 8.3935 9.25342 8.1135 9.58009L5.48676 13.2934C4.88677 14.16 4.26009 14.22 4.02009 14.1401C4.51343 15.3067 5.70677 14.7068 6.24011 14.2667C6.37343 15.1467 5.99344 15.6667 5.78677 15.8134C6.12776 15.7729 6.44771 15.6273 6.70218 15.3968C6.95664 15.1661 7.133 14.8622 7.20676 14.5268C7.40678 14.82 7.74016 15.98 7.46677 18.2267C7.41608 18.7493 7.22939 19.2496 6.92528 19.6777C6.62119 20.1058 6.21027 20.4468 5.73343 20.6667L5.69343 20.66H2.66675V2H6.0001V8.66667ZM8.64674 10.7001C8.64674 10.3134 8.86017 9.53343 9.73346 9.52005C9.66004 10.4134 8.97341 10.68 8.64674 10.7001Z" fill="white"/>
</svg>

<svg xmlns="http://www.w3.org/2000/svg" width="24" height="24" fill="none" viewBox="0 0 24 24">
    <path fill="#fff" d="M6 8.667h2.367c.306 0 1.206-.314 2.36-1.407 1.146-1.1 4.22-3.98 5.606-5.26h5l-8 7.667 7.934 11h-3.933L14 16c.427 1.02.68 3.613-.127 6 .2-2.307-1.073-4.84-1.32-5.167-.22-.293-1.386-2.626-1.946-3.753-.507-2.187 1.773-4.38 2.98-5.2-1.587-1.013-3 .16-3.507.867-.907-.12-1.687.506-1.966.833l-2.627 3.713c-.6.867-1.227.927-1.467.847.493 1.167 1.687.567 2.22.127.133.88-.247 1.4-.453 1.546a1.65 1.65 0 0 0 1.42-1.286c.2.293.533 1.453.26 3.7a3.01 3.01 0 0 1-1.734 2.44l-.04-.007H2.667V2H6zM8.647 10.7c0-.387.213-1.167 1.086-1.18-.073.893-.76 1.16-1.086 1.18"/>
</svg>
